Adwaita++/apps/16/rete.svg

<svg height="16" width="16" xmlns="http://www.w3.org/2000/svg">
  <g fill="#444">
    <path d="m3.8127587 1.0999998c-1.2008187.0143182-2.0807358-.0273347-2.7985539.3688017-.37168604.2120213-.6554427.5490758-.79997421.9518337-.15750004.4190454-.21423039.9158646-.21423039 1.543001v5.727273c0 .6280918.0567298 1.1249108.21423039 1.5430018.15654546.419046.44011024.753288.79997421.951834.7178183.397091 1.5977352.354484 2.7985539.368801h1.9145144v.477273c0 .321617-.033192.549667-.081354.743027-.032292.130339-.065241.254408-.1193175.338972-.054682.08551-.1291379.138277-.2060952.187113-.2379319.151356-.5737149.162706-1.0250519.162706h-.4772724v.954546h3.1239671v-4.930011c0-.6271365.05673-1.1239559.2142304-1.5430014.1445315-.4027579.4282881-.7398125.7999742-.9518337.7178181-.3961364 1.5977354-.3544835 2.7985542-.3688017h.0027 4.515109v-3.660899c0-.6280909-.05673-1.1239556-.214231-1.543001-.14428-.4026048-.428636-.7396379-.799963-.9518337-.718771-.3970909-1.597735-.3544835-2.798553-.3688017h-7.6444996z" opacity=".5" transform="matrix(.6521739 0 0 .6521739 .5 .225296)"/>
    <g transform="matrix(.62252961 0 0 .62252961 5.539526 5.039526)">
      <path d="m7.7460938 4.6875c-.8648751.0103125-1.4986251-.0196875-2.015625.265625-.2677024.1527058-.4720748.3954653-.5761719.6855469-.1134375.3018125-.1542969.6596406-.1542969 1.1113281v4.125c0 .452375.040859.810203.1542969 1.111328.11275.301813.3169842.542547.5761719.685547.517.286 1.1507499.255313 2.015625.265625h1.3789062v.34375c0 .773438-.1933594.967285-.5800781 1.015625-.1289063.016113-.2792969.015625-.4511719.015625h-.34375v.6875h5.5v-.6875h-.34375c-.6875 0-1.03125 0-1.03125-1.03125v-.34375h1.378906c.864875-.0096 1.497938.01969 2.015625-.265625.267702-.152705.472075-.395465.576172-.685547.11275-.301125.154297-.659641.154297-1.111328v-4.125c0-.452375-.040859-.8095156-.154297-1.1113281-.103924-.2899713-.308728-.5327154-.576172-.6855469-.517687-.286-1.15075-.2553125-2.015625-.265625h-5.5058591z" transform="matrix(1.4545455 0 0 1.4545455 -7.272727 -5.818182)"/>
      <path d="m6 12h4v1.5c0 1.5.5 1.5 1.5 1.5h.5v1h-8v-1h.5c1 0 1.5 0 1.5-1.5z"/>
    </g>
  </g>
</svg>

<svg xmlns="http://www.w3.org/2000/svg" width="16" height="16" version="1.1">
 <g transform="matrix(0.6521739,0,0,0.6521739,0.49999987,0.22529598)" style="fill:#474747;opacity:0.5">
  <path fill="#444" d="M 3.8127587,1.0999998 C 2.61194,1.114318 1.7320229,1.0726651 1.0142048,1.4688015 0.64251876,1.6808228 0.3587621,2.0178773 0.21423059,2.4206352 0.05673055,2.8396806 2e-7,3.3364998 2e-7,3.9636362 v 5.727273 c 0,0.6280918 0.0567298,1.1249108 0.21423039,1.5430018 0.15654546,0.419046 0.44011024,0.753288 0.79997421,0.951834 0.7178183,0.397091 1.5977352,0.354484 2.7985539,0.368801 h 1.9145144 v 0.477273 c 0,0.321617 -0.033192,0.549667 -0.081354,0.743027 -0.032292,0.130339 -0.065241,0.254408 -0.1193175,0.338972 -0.054682,0.08551 -0.1291379,0.138277 -0.2060952,0.187113 -0.2379319,0.151356 -0.5737149,0.162706 -1.0250519,0.162706 H 3.8181821 v 0.954546 h 3.1239671 v -4.930011 c 0,-0.6271365 0.05673,-1.1239559 0.2142304,-1.5430014 C 7.3009111,8.5424127 7.5846677,8.2053581 7.9563538,7.9933369 8.6741719,7.5972005 9.5540892,7.6388534 10.754908,7.6245352 h 0.0027 4.515109 v -3.660899 c 0,-0.6280909 -0.05673,-1.1239556 -0.214231,-1.543001 C 14.914206,2.0180304 14.62985,1.6809973 14.258523,1.4688015 13.539752,1.0717106 12.660788,1.114318 11.45997,1.0999998 H 3.8154704 Z"/>
 </g>
 <g fill="#444" transform="matrix(0.62252961,0,0,0.62252961,5.5395258,5.0395258)">
  <path fill="#444" d="M 7.7460938,4.6875 C 6.8812187,4.6978125 6.2474687,4.6678125 5.7304688,4.953125 5.4627664,5.1058308 5.258394,5.3485903 5.1542969,5.6386719 5.0408594,5.9404844 5,6.2983125 5,6.75 v 4.125 c 0,0.452375 0.040859,0.810203 0.1542969,1.111328 0.11275,0.301813 0.3169842,0.542547 0.5761719,0.685547 0.517,0.286 1.1507499,0.255313 2.015625,0.265625 H 9.125 v 0.34375 c 0,0.773438 -0.1933594,0.967285 -0.5800781,1.015625 C 8.4160156,14.312988 8.265625,14.3125 8.09375,14.3125 H 7.75 V 15 h 5.5 v -0.6875 h -0.34375 c -0.6875,0 -1.03125,0 -1.03125,-1.03125 V 12.9375 h 1.378906 c 0.864875,-0.0096 1.497938,0.01969 2.015625,-0.265625 0.267702,-0.152705 0.472075,-0.395465 0.576172,-0.685547 C 15.958453,11.685203 16,11.326687 16,10.875 V 6.75 C 16,6.297625 15.959141,5.9404844 15.845703,5.6386719 15.741779,5.3487006 15.536975,5.1059565 15.269531,4.953125 14.751844,4.667125 14.118781,4.6978125 13.253906,4.6875 H 7.7480469 Z" transform="matrix(1.4545455,0,0,1.4545455,-7.2727273,-5.8181818)"/>
  <path fill="#444" d="m 6,12 h 4 v 1.5 C 10,15 10.5,15 11.5,15 H 12 v 1 H 4 v -1 h 0.5 c 1,0 1.5,0 1.5,-1.5 z" overflow="visible"/>
 </g>
</svg>
